X:1
T:Ie suis deseritee
T:Ie suis deseritee
T:François du Bois
T:Source : Il primo libro di madrigali a 3 voci---Venetia---A.Gardano---1559. Editor: André Vierendeels (31/10/14).
T:Notes : Original clefs :  G2, G2, C3 Original note values have been halved Editorial accidentals above the staff The name of the composer is noted in the edition of 1543 
C:Anonymous
%%score [ 1 2 3 ]
L:1/8
Q:1/4=80
M:2/2
K:F
V:1 treble nm="Canto 1" snm="C 1"
V:2 treble nm="Canto 2" snm="C 2"
V:3 treble-8 nm="Tenor" snm="T"
V:1
 z8 | z8 | A4 A2 A2 | c2 c2 d4 | A8 | z8 | z2 f2 f2 f2 | e2 d4 c2 | d4 A4- | A4 z4 | z2 A2 A2 A2 | %11
w: ||Ie suis des-|e- ri- te-|e,||puis- que iay|per- du mon|a- my,|_|seul- let- te'il|
 c2 c2 d4 | A8 | z8 | z2 f2 f2 f2 | e2 d4 c2 | d4 A4- | A4 z4 | z2 c4 c2 | d2 f2 f2 e2 | f2 c4 c2 | %21
w: ma lais- se-|e,||plei- ne de|pleurs et de|sou- ci:|_|ros- si-|gnol du bois io-|ly, sans point|
 d2 f2 e2 d2- | dc c4 B2 | c8 | z2 d2 f3 e | d2 d2 c2 BA | B2 B2 A4 | z2 A2 A2 A2 | F3 G AB c2 | %29
w: fe- re de- meu-|* * re- *|e,|va ten _|_ di- re a _|mon a- my|que pour lui|suis _ _ _ _|
 d2 f4 e2- | ed d4 c2 | d4 z2 A2 | A2 A2 F3 G | AB c2 d2 f2- | f2 e3 d d2- | %35
w: tor- men- *|* * * te-|e, que|pour lui suis _|_ _ _ tor- men-|* * * te-|
"^#""^#""^#" dc cB/c/ d4- | d8 |] %37
w: * * * * * e.|_|
V:2
 A4 A2 A2 | c3 B A2 G2 | F6 ED | E4 D4 | z2 c2 c2 c2 | B2 A2 A2 G2 | A2 A2 B3 A | G2 F2 E2 E2 | %8
w: suis des- e-|ri- te- e, *||* puis-|que iay per-|du mon a- my,|puis- que iay par-|du mon a- my,|
 D2 d2 c2 d2 | f2 ed c2 d2 | A2 d2 c2 f2- | f2 e2 f4 | z2 f2 f2 f2 | e2 d2 d2 c2 | d2 DE FG AF | %15
w: seul- let- te'il ma|lais- _ _ _ se-|e, * * *|* * plei-|ne de pleurs|et de sou- ci,|de sou- _ _ _ _ _|
 GF ED E2 E2 | D4 z2 F2- | F2 F2 G2 B2 | A2 FG AB cA | BA GF G4 | F4 z2 F2- | F2 F2 G2 B2 | %22
w: _ _ _ _ _ ci:|ros- si-|* gnol du bois|io- ly, * * * * *||sans point|_ fe- re de-|
 A2 G4 F2- | F2 E2 F2 G2 | A2 A2 B2 A2 | A2 G2 A2 F2- | F2 ED E2 F2 | E2 c2 c2 c2 | d2 d2 cB AG | %29
w: meu- re- e,|* * va ten|di- re- a mon|a- my, a mon|_ _ _ a- my|que pour lui suis|tor- men- te- * * *|
 FE DE FG AF | GF ED E4 | D4 z2 c2 | c2 c2 d2 d2 | cB AG FE DE | FG AF GF ED | E4 D4- | D8 |] %37
w: |* * * * e,|que pour|lui suis tor- men-|te- * * * * * * *||e. Ie|_|
V:3
 z4 A4 | A2 A2 c2 c2 | d4 A4- |"^#" A4 z2 d2 | d2 c2 f3 e | d2 c2 B2 B2 | A2 d2 d2 B2 | %7
w: suis|des- e- ri- te-|e, puis-|_ que|iay per- du *|* mon a- my,|puis- que iay per-|
 c2 d2 A2 A2 | d4 z2 d2 | d2 d2 f2 ed | c2 d2 A2 d2 | c4 z2 f2 | f2 f2 d2 d2 | gf ed e2 e2 | %14
w: du mon a- my,|seul- let-|te'il ma lais- se- *|e, * * *|plei- ne|de pleurs et de|sou- _ _ _ _ cy,|
 d2 B3 A F2 | c2 d2 A4 | z2 d4 d2 | A2 d2 cB BA/G/ | FG AB cd ef | d2 d2 c4 | z2 F4 F2 | %21
w: et de _ _|sou- ci: ros-|si- gnol|du bois io- _ _ _ _|_ _ _ _ _ _ _ _|* ly, sans|point fe-|
 B2 d2 c2 B2 | c4 d4 | c4 z2 c2 | f3 e d2 c2 | B2 B2 A2 d2- | d2 cB c2 d2 | A2 f2 f2 f2 | %28
w: re de- meu- re-|e, *|va ten|di- re a mon|a- my, a mon|_ _ _ a- my|que pour lui suis|
 dc de f2 F2 | B3 c d2 A2 | B4 A4 | d4 z2 f2 | f2 f2 dc de | f2 F2 B3 c | d2 A2 B4 | A4 d4- | d8 |] %37
w: tour- _ _ _ _ _|te- _ _ e,||que pour|lui suis tor- _ _ _|_ men- te- *|* e. *|||

